!!!COM: Scarlatti, Domenico
!!!CDT: 1685-1757
!!!OTL: Sonata in D major, L.15, K.160
!!!SCT: K. 160
!!!SCT: L. 15
!!!OMD: Allegro ([quarter]=126)
**kern	**kern	**dynam
*staff2	*staff1	*staff1/2
*Icemba	*Icemba	*
*I"L.15 (K.160)	*I"L.15 (K.160)	*
*>[A,A,B,B]	*>[A,A,B,B]	*>[A,A,B,B]
*>norep[A,B]	*>norep[A,B]	*>norep[A,B]
*>A	*>A	*>A
*clefG2	*clefG2	*
*k[f#c#]	*k[f#c#]	*
*D:	*D:	*
*met(c)	*met(c)	*
*M4/4	*M4/4	*
*MM126	*MM126	*
=1-	=1-	=1-
4dd	8dd'L	f
.	8ff#'J	.
16r	[4aa^	.
(16eeLL	.	.
16cc#	.	.
16aJJ	.	.
4dd)	8aaL]	.
.	8a'J	.
16r	[4ff#^	.
(16aLL	.	.
16f#	.	.
16dJJ	.	.
=2	=2	=2
4g	16ff#LL]	.
.	(16b	.
.	16gg	.
.	16ff#JJ)	.
4a	(16ff#LL	.
.	16ee	.
.	16dd	.
.	16cc#JJ	.
4d)	8dd'L)	.
.	8f#'J	mf
16r	[4a^	.
*clefF4	*	*
(16eLL	.	.
16c#	.	.
16AJJ	.	.
!!LO:LB:g=z
=3	=3	=3
4d)	8aL]	.
.	8A'J	.
16r	[4f#^	.
(16ALL	.	.
16F#	.	.
16DJJ	.	.
4G	16f#LL]	.
.	(16B	.
.	16g	.
.	16f#JJ)	.
4A	(>16f#LL	.
.	16e	.
.	16d	.
.	16c#JJ	.
=4	=4	=4
4D)	16dLL	f
.	16A<	.
.	16F#<	.
.	16A<JJ)	.
(16DLL	4r	.
16AA	.	.
16FF#	.	.
16AAJJ	.	.
4DD)	8aa'Lz	.
.	(gg8q	.
.	(16ff#L)	p
.	16eeJJ	.
4r	8ddL)	.
.	8ccn'J	.
=5	=5	=5
(8gL	(8a#^>	.
16eL	4.b/)	.
16dJJ	.	.
8c#L)	.	.
8B'J	.	.
4An	(8eeLz	.
.	16cc#L	p
.	16bJJ	.
4r	8anL)	.
.	8g'J	.
!!LO:LB:g=z
=6	=6	=6
(8dL	(8e#^	.
16A'L	4.f#)	.
16GJJ	.	.
8F#L)	.	.
8En'J	.	.
4D	8aa'Lz	.
.	(gg8q	.
.	(16ff#L)	p
.	16eenJJ	.
4r	8ddL)	.
.	8ccn'J	.
=7	=7	=7
(8gL	(8a#^>	.
16eL	4.b/)	.
16dJJ	.	.
8c#L)	.	.
8B'J	.	.
4An	(8eeLz	.
.	16cc#L	p
.	16bJJ	.
4r	8anL)	.
.	8g'J	.
=8	=8	=8
(8dL	(8e#^>	.
16AL	4.f#)	.
16GJJ	.	.
8F#L)	.	.
8En'J	.	.
*ped	*	*
4D^	(16ff#LL	<
.	16dd	.
.	16a	.
.	16f#JJ)	.
*Xped	*	*
(16dLL	8d<L	.
16A	.	.
16B	(16gL	.
16c#JJ)	16enJJ)	.
!!LO:LB:g=z
=9	=9	=9
*ped	*	*
4D^	(16ff#LL	.
.	16dd	.
.	16a	.
.	16f#JJ)	.
*Xped	*	*
(16dLL	8d<L	.
16A	.	.
16B	(16gL	.
16c#JJ)	16eJJ)	.
*ped	*	*
4D^	(16ff#LL	.
.	16dd	.
.	16a	.
.	16f#JJ)	.
*Xped	*	*
(16dLL	8d<L	.
16A	.	.
16B	(16gL	.
16c#JJ)	16eJJ	.
=10	=10	=10
*ped	*	*
(16DDLL	4.d) 4.f#	f
16FF#	.	.
16AA	.	.
16DJJ	.	.
16F#LL	.	.
16A	.	.
16d	8ddd'	.
16f#JJ)	.	.
*Xped	*	*
4AA^	(16ccc#LL	.
.	16aa	.
.	16gg	.
.	16eeJJ	.
4r	16cc#LL	.
.	16a	.
.	16gg	.
.	16eeJJ	.
=11	=11	=11
*ped	*	*
(16DDLL	4.dd 4.ff#)	.
16FF#	.	.
16AA	.	.
16DJJ	.	.
16F#LL	.	.
16A	.	.
16d	8ddd'	.
16f#JJ)	.	.
*Xped	*	*
4AA^	(16ccc#LL	.
.	16aa	.
.	16gg	.
.	16eeJJ	.
4r	16cc#LL	.
.	16a	.
.	16gg	.
.	16eeJJ	.
!!LO:LB:g=z
=12	=12	=12
*ped	*	*
16DDLL	4dd 4ff#)	.
16FF#	.	.
16AA	.	.
16DJJ	.	.
16F#LL	4r	.
16A	.	.
16d	.	.
16f#JJ	.	.
*Xped	*	*
4EE^>	(16dddLL	.
.	16bb	.
.	16gg#	.
.	16ddJJ	.
4r	16bLL	.
.	16g#	.
.	16b	.
.	16gg#JJ	.
=13	=13	=13
*ped	*	*
(16C#LL	4aa)	.
16E	.	.
16A	.	.
16c#JJ)	.	.
4r	(16eLL	.
.	16a	.
.	16cc#	.
.	16aJJ)	.
*Xped	*	*
4D^	16r	.
.	(>16ff#LL	.
.	16ddd	.
.	16ccc#JJ	.
4r	16bbLL	.
.	16aa	.
.	16gg#	.
.	16aaJJ	.
!!LO:LB:g=z
=14	=14	=14
4EE	16gg#LL	.
.	16aa	.
.	16bb	.
.	16ddJJ	.
4r	16cc#LL	.
.	16aa	.
.	16gg#	.
.	16bJJ	.
4EE	16aLL	.
.	16ff#	.
.	16ee	.
.	16g#JJ	.
4r	16f#LL	.
.	16dd	.
.	16cc#	.
.	16eJJ	.
=15	=15	=15
4EE	16dLL	.
.	16b	.
.	16a	.
.	16c#JJ	.
4r	16g#LL	.
.	16B	.
.	16f#	.
.	16AJJ	.
4EE	16G#LL	.
.	16e	.
.	16d#	.
.	16F#JJ	.
4EE\	8E</'>L)	.
.	8e\'J	.
=16	=16	=16
1r;	1r;	.
!!LO:LB:g=z
=17||	=17||	=17||
*	*^	*
4r	4ryy	(8eeL	mf
.	.	16ccnL	.
.	.	16bJJ	.
(<4.e	8aL)	4ryy	.
.	(>8gJ	.	.
.	8fn)	4r	.
4d	(4ffn	.	.
.	.	8g#L	.
8cn	8ee	8aJ	.
=18	=18	=18	=18
*^	*	*	*
(4d	8BL	8ddL	(4.dd	.
.	8A	8cccn	.	.
4e)	8G#	8bb	.	.
.	8AJ	8aaJ)	8ccn)	.
!	!	!	!	!LO:HP:a
2ryy	4E	(4.aa	(8bL	>
.	.	.	8dd#J	.
.	4e)	.	4ee)	.
.	.	8gg#)	.	.
*v	*v	*	*	*
*	*v	*v	*
=19	=19	=19
2r;	2r;	]
4r	(8eeL	p
.	16ccnL	.
.	16bJJ	.
(<[4e	8aL)	.
.	(>8gnJ	.
!!LO:LB:g=z
=20	=20	=20
*^	*^	*
2ryy	8e]	8fn)	4r	.
.	4d	(4ffn	.	.
.	.	.	(8g#L	.
.	8cn	8ee	8aJ)	.
(4d	8BL	8ddL	(4.dd	.
.	8A	8cccn	.	.
4e)	8G#	8bb	.	.
.	8AJ	8aaJ)	8ccn)	.
*v	*v	*	*	*
=21	=21	=21	=21
!	!	!	!LO:HP:a
4E	(4.aa	(8bL	>
.	.	8dd#J	.
4e)	.	4ee)	.
.	8gg#)	.	]
2r	4ryy	(16dddnLL	f
.	.	16bb	.
.	.	16gg#	.
.	.	16ddnJJ	.
.	16bLL	4ryy	.
.	16g#	.	.
.	16e	.	.
.	16ddJJ	.	.
*	*v	*v	*
=22	=22	=22
*ped	*	*
(16AALL	4cc#)	.
16C#	.	.
16E	.	.
16AJJ	.	.
*clefG2	*	*
16c#LL	4r	.
16e	.	.
16a	.	.
16cc#JJ)	.	.
*clefF4	*	*
*Xped	*	*
4EE	(16dddLL	.
.	16bb	.
.	16gg#	.
.	16ddJJ	.
4r	16bLL	.
.	16g#	.
.	16e	.
.	16ddJJ	.
!!LO:LB:g=z
=23	=23	=23
*clefF4	*	*
*ped	*	*
16AALL	4cc#)	.
16C#	.	.
16E	.	.
16AJJ	.	.
*clefG2	*	*
16c#LL	4r	.
16e	.	.
16a	.	.
16cc#JJ	.	.
*Xped	*	*
*clefF4	*	*
4C#	16r	.
.	(16ccc#LL	.
.	16aa	.
.	16eeJJ	.
4r	16cc#LL	.
.	16a	.
.	16cc#	.
.	16eeJJ	.
=24	=24	=24
*	*^	*
4D	2ryy	16ff#LL	.
.	.	16aa	.
.	.	16ff#	.
.	.	16ddJJ	.
4r	.	16bLL	.
.	.	16g#	.
.	.	16b	.
.	.	16ddJJ	.
(4E	8ryy	16cc#LL	.
.	.	16ee	.
.	8aa^	(>16aa)	.
.	.	16aJJ	.
4D	4ryy	16aaLL)	.
.	.	(16bb	.
.	.	16gg#	.
.	.	16ddJJ)	.
*	*v	*v	*
!!LO:LB:g=z
=25	=25	=25
4C#	16r	.
.	(16dddLL	f
.	16ccc#	.
.	16bbJJ	.
4A	16aaLL	.
.	16gg#	.
.	16ff#	.
.	16eeJJ	.
4D)	16ee#LL	.
.	16ff#	.
.	16cc#	.
.	16ddJJ	.
!	!LO:TX:b:i:t=m.s.	!
8rff>	16a#LL<	.
.	16bJJ	.
8r	16e#LL	.
.	16f#JJ	.
=26	=26	=26
4r	16c#LL	.
.	16d	.
.	16en	.
.	16f#JJ	.
4D (4B	16g#LL>	.
.	16dd	.
.	16cc#	.
.	16bJJ	.
4E 4c#	16anLL	.
.	32bL	.
.	32a	.
.	32g#	.
.	32aJ	.
.	16bJJ)	.
*ped	*	*
4D 4B	(8.bLM	.
.	16aJk)	.
!!LO:LB:g=z
=27	=27	=27
*Xped	*	*
4C# 4A)	16rdd	.
.	(16dddLL	p
.	16ccc#	.
.	16bbJJ	.
4r	16aaLL	.
.	16gg#	.
.	16ff#	.
.	16eeJJ	.
4D	16ee#LL	.
.	16ff#	.
.	16cc#	.
.	16ddJJ	.
8r>ff	16a#LL<	.
.	16bJJ	.
8r	16e#LL	.
.	16f#JJ	.
=28	=28	=28
4r	16c#LL	.
.	16d	.
.	16e	.
.	16f#JJ	.
4D (4B	16g#LL>	.
.	16dd	.
.	16cc#	.
.	16bJJ	.
4E	16aLL	.
.	32bL	.
.	32a	.
.	32g#	.
.	32aJ	.
.	16bJJ)	.
4EE)	(8.bLMM	.
.	16aJk)	.
=29	=29	=29
4.AA^	(>16aLL	f
.	16e	.
.	16c#	.
.	16AJJ	.
.	16c#LL	.
.	16a	.
8EE' 8E'	16B	.
.	16g#JJ)	.
4.AA^	(>16cc#LL	.
.	16a	.
.	16e	.
.	16c#JJ	.
.	16eLL	.
.	16cc#	.
8EE 8E	16b	.
.	16dJJ)	.
!!LO:LB:g=z
=30	=30	=30
4.AA^	(16eeLL<	.
.	16cc#	.
.	16a	.
.	16eJJ	.
.	16aLL	.
.	16ee	.
8EE' 8E'	16dd	.
.	16bJJ)	.
4.AA^	(16aaLL	.
.	16ee	.
.	16cc#	.
.	16aJJ	.
.	16cc#LL	.
.	16aa	.
8EE' 8E'	16b	.
.	16gg#JJ)	.
=31	=31	=31
4.AA^	(16ccc#LL	.
.	16aa	.
.	16ee	.
.	16cc#JJ	.
.	16eeLL	.
.	16ccc#	.
8EE' 8E'	16bb	.
.	16ddJJ)	.
4.AA^	(16aaLL	<
.	16ee	.
.	16cc#	.
.	16aJJ	.
.	16cc#LL	.
.	16aa	.
8EE' 8E'	16b	.
.	16gg#JJ	.
=32	=32	=32
8AA' 8A'L	16cc#LL	.
.	16aa	.
8EE' 8E'J	16b	.
.	16gg#JJ	.
8AA' 8A'L	16cc#LL	.
.	16aa	.
8EE' 8E'J	16b	.
.	16gg#JJ)	.
.	(gg#16qq^	.
4AA^ 4A^	4aa)	ff
4r	4r	.
!!LO:LB:g=z
=33:|!|:	=33:|!|:	=33:|!|:
*>B	*>B	*>B
2r	(8eeL	f
.	(dd8q	.
.	16cc#L)	.
.	16bJJ	.
.	8aL	.
.	8f#J	.
(<8eL	4.gn	.
16c#L	.	.
16BJJ	.	.
8A#L	.	>
8GJ	8e)	]]
=34	=34	=34
4F#) 4e	(16eeLL>	p
.	16cc#	.
.	16a#	.
.	16f#JJ	.
4r	16eeLL	.
.	16dd)	.
.	(16dd	.
.	16cc#JJ	.
4F# 4B 4d	16ddLL	.
.	16b	.
.	16f#	.
.	16dJJ	.
4r	16ddLL	.
.	16cc#)	.
.	(16cc#	.
.	16bJJ	.
=35	=35	=35
*^	*^	*
2ryy	4F# 4c# 4e	2.ryy	16cc#LL	.
.	.	.	16a#	.
.	.	.	16g	.
.	.	.	16eJJ	.
.	4r	.	16cc#LL	.
.	.	.	16b)	.
.	.	.	(16b	.
.	.	.	16a#JJ	.
8B' 8d'	4.F#	.	16bLL	.
.	.	.	16f#	.
4.ryy	.	.	16d	.
.	.	.	16BJJ)	.
.	.	4b	(>(16bLL	.
.	.	.	16e#	.
.	8F#	.	16f#	.
.	.	.	16e#JJ	.
*v	*v	*	*	*
!!LO:LB:g=z
=36	=36	=36	=36
8F# (8c#L	8a#L	16f#LL	.
.	.	16e#	.
8F# 8d	8b	16f#	.
.	.	16e#JJ	.
8F# 8c#	8a#)	16f#LL	.
.	.	16e#	.
8F# 8dJ	8bJ	16f#	.
.	.	16e#JJ	.
8F# 8c#L	8a#L	16f#LL	.
.	.	16e#	.
8F# 8d	8b	16f#	.
.	.	16e#JJ	.
8F# 8c#	8cc#	16f#LL	.
.	.	16e#	.
8F# 8BJ)	8ddJ)	16f#	.
.	.	16e#JJ	.
*	*v	*v	*
=37	=37	=37
4FF#	4cc#mm	mf
4r;	4r;	.
4r	(8ff#L	f
.	(ee8q	.
.	16ddL)	.
.	16cc#JJ	.
(<[4f#	8bL	.
.	8anJ	.
=38	=38	=38
*^	*^	*
4ryy	8f#L]	4g)	4ryy	.
.	16eL	.	.	.
.	16dJJ	.	.	.
4e	8c#L	(4.gg	8a#L	.
.	8BJ	.	8bJ	.
2ryy	4A# 4e	.	4cc#	.
.	.	16ff#LL	.	.
.	.	16eeJJ	.	.
.	4F# 4e)	8ddL	4r	.
.	.	8cc#J)	.	.
*v	*v	*	*	*
*clefG2	*	*	*
!!LO:LB:g=z
=39	=39	=39	=39
(>4B 4f#	(8dddL	4dd	.
.	16bbL	.	.
.	16aaJJ	.	.
4b/)	2.ryy	8gg#L	.
.	.	8ff#J)	.
4c# 4g#	.	(16bbLL	p
.	.	16gg#	.
.	.	16ee#	.
.	.	16cc#JJ	.
4r	.	16bbLL	.
.	.	16aa)	.
.	.	(16aa	.
.	.	16gg#JJ	.
*	*v	*v	*
=40	=40	=40
4c# 4f# 4a	16aaLL	.
.	16ff#	.
.	16cc#	.
.	16aJJ	.
4r	16aaLL	.
.	16gg#)	.
.	(16gg#	.
.	16ff#JJ	.
4c# 4g# 4b	16gg#LL	.
.	16ee#	.
.	16dd	.
.	16bJJ	.
4r	16gg#LL	.
.	16ff#)	.
.	(16ff#	.
.	16ee#JJ	.
=41	=41	=41
*	*^	*
4.c# 4.f#	4.ff#)	(16aLL	.
.	.	16b#	.
.	.	16cc#	.
.	.	16b#JJ	.
.	.	16cc#LL	.
.	.	16b#	.
(>8c# 8a	(8ff#	16cc#	.
.	.	16b#JJ	.
8c# 8g#L	8ee#L	16cc#LL	.
.	.	16b#	.
8c# 8a	8ff#	16cc#	.
.	.	16b#JJ	.
8c# 8g#	8ee#	16cc#LL	.
.	.	16b#	.
8c# 8aJ	8ff#J	16cc#	.
.	.	16b#JJ	.
!!LO:LB:g=z
=42	=42	=42	=42
8c# 8g#L	8ee#L	16cc#LL	.
.	.	16b#	.
8c# 8a	8ff#	16cc#	.
.	.	16b#JJ	.
8c# 8g#	8gg#	16cc#LL	.
.	.	16b#	.
8c# 8f#J	8aaJ)	16cc#	.
.	.	16b#JJ)	.
*clefF4	*	*	*
4C#)	2ryy	4gg#mm	mf
4r;	.	4r;	.
*	*v	*v	*
=43	=43	=43
2r	(8gg#L	f
.	16aaL	.
.	16bbJJ	.
.	16aaLL	.
.	16gg#	.
.	16ff#	.
.	16ee#JJ	.
*clefG2	*	*
(16aLL	4ff#)	.
16cc#	.	.
16f#	.	.
16aJJ	.	.
16dLL	4r	.
16f#	.	.
16B	.	.
16dJJ	.	.
*clefF4	*	*
=44	=44	=44
16G#LL	8r	.
16B	.	.
16E#	8gg#'	.
16G#JJ	.	.
4C#)	(16gg#LL	.
.	32aaL	.
.	32bbJ	.
.	16aa	.
.	16gg#JJ	.
*clefG2	*	*
(>16aLL	4ff#)	.
16cc#	.	.
16f#	.	.
16aJJ	.	.
16dLL	4r	.
16f#	.	.
16B	.	.
16dJJ	.	.
*clefF4	*	*
!!LO:LB:g=z
=45	=45	=45
16G#LL	8r	.
16B	.	.
16E#	8gg#'	.
16G#JJ	.	.
4C#)	(16gg#LL	.
.	32aaL	.
.	32bbJ	.
.	16aa	.
.	16gg#JJ	.
*clefG2	*	*
(16aLL	4ff#)	.
16cc#	.	.
16f#	.	.
16aJJ	.	.
16cnLL	4r	.
16e	.	.
16A	.	.
16cJJ	.	.
*clefF4	*	*
=46	=46	=46
16F#LL	8r	.
16A	.	.
16D#	8ff#'	.
16F#JJ	.	.
4BB)	(16ff#LL	.
.	32ggnL	.
.	32aaJ	.
.	16gg	.
.	16ff#JJ	.
(16gLL	4ee)	.
16b	.	.
16e	.	.
16gJJ	.	.
16cnLL	4r	.
16e	.	.
16A	.	.
16cJJ	.	.
=47	=47	=47
16F#LL	8r	.
16A	.	.
16D#	8ff#'	.
16F#JJ	.	.
4BB)	(16ff#LL	.
.	32ggL	.
.	32aaJ	.
.	16gg	.
.	16ff#JJ	.
(>16gLL	4ee)	.
16b	.	.
16e	.	.
16gJJ	.	.
16BLL	4r	.
16e	.	.
16G	.	.
16BJJ	.	.
!!LO:LB:g=z
=48	=48	=48
16ELL	8r	.
16G	.	.
16C#	8ee'	.
16EJJ	.	.
4AA)	(16eeLL	.
.	32ff#L	.
.	32ggJ	.
.	16ff#	.
.	16eeJJ	.
(16f#LL	4dd)	.
16a	.	.
16d	.	.
16f#JJ	.	.
16BLL	4r	.
16d	.	.
16G	.	.
16BJJ	.	.
=49	=49	=49
16ELL	8r	.
16G	.	.
16C#	8ee'	.
16EJJ	.	.
8AAL)	(16eeLL	.
.	32ff#L	.
.	32ggJ	.
(8GGJ	16ff#	.
.	16eeJJ	.
4FF#	16ddLL)	.
.	(16aa	.
.	16gg	.
.	16ff#JJ	.
4GG)	16eeLL	.
.	16dd	.
.	16cc#	.
.	16ddJJ)	.
=50	=50	=50
*ped	*	*
(16AALL	4aMM	.
16C#	.	.
16E	.	.
16AJJ	.	.
*clefG2	*	*
16c#LL	4r	.
16e	.	.
16a	.	.
16cc#JJ)	.	.
*Xped	*	*
*clefF4	*	*
4AA	16r	.
.	(16ccc#LL	.
.	16aa	.
.	16eeJJ	.
4r	16cc#LL	.
.	16a	.
.	16e	.
.	16c#JJ)	.
!!LO:LB:g=z
=51	=51	=51
*ped	*	*
(16AALL	4aa	.
16C#	.	.
16E	.	.
16AJJ	.	.
*clefG2	*	*
16c#LL	4r	.
16e	.	.
16a	.	.
16cc#JJ)	.	.
*clefF4	*	*
4AA	16r	.
.	N(16ccc#LL	.
.	16aa	.
.	16eeJJ	.
4r	16cc#LL	.
.	16aa	.
.	16ee	.
.	16cc#JJ	.
=52	=52	=52
4r	16aLL	.
.	16ee	.
.	16cc#	.
.	16aJJ	.
8r	16eLL	.
.	16c#JJ)	.
16ALL	8r	.
16EJJ	.	.
*Xped	*	*
4AAN)	2r;	.
4r;	.	.
=53	=53	=53
*	*^	*
4r	2ryy	(8aaL	mf
.	.	(ggn8q	.
.	.	16ffnL)	.
.	.	16eeJJ	.
(<4.a	.	8ddL	.
.	.	8ccnJ	.
.	8b-')	4r	.
4g	(4bb-	.	.
.	.	(8cc#L	.
8fn 8a	[8aa	8ddJ	.
!!LO:LB:g=z
=54	=54	=54	=54
*^	*	*	*
4g	8eL	8aa]	4b-	.
.	8d	4gg	.	.
2.ryy	8c#	.	4a)	.
.	8dJ	[8ffn)	.	.
.	4A)	4ff]	(8g#^L	.
.	.	.	8aJ)	.
.	4r	(8dd#^L	4r	.
.	.	8eeJ)	.	.
*v	*v	*	*	*
=55	=55	=55	=55
4r	2ryy	(8aaL	p
.	.	ggn8q	.
.	.	16ffnL	.
.	.	16eeJJ	.
(<4.a	.	8ddL	.
.	.	8ccnJ	.
.	8b-')	4r	.
4g	(4bb-	.	.
.	.	(8cc#L	.
8fn 8a	[8aa	8ddJ	.
=56	=56	=56	=56
*^	*	*	*
4g	8eL	8aa]	4b-	.
.	8d	4gg	.	.
2.ryy	8c#	.	4a)	.
.	8dJ	[8ffn)	.	.
.	4A)	4ff]	(8g#^L	.
.	.	.	8aJ)	.
.	4r	(8dd#^L	4r	.
.	.	8eeJ)	.	.
*v	*v	*	*	*
*	*v	*v	*
!!LO:LB:g=z
=57	=57	=57
4AA	16r	.
.	(16ccc#LL	f
.	16aa	.
.	16ggnJJ	.
4r	16eeLL	.
.	16cc#	.
.	16a	.
.	16ggJJ	.
*ped	*	*
(16DDLL	4ff#X)	.
16FF#	.	.
16AA	.	.
16DJJ	.	.
16F#LL	8r	.
16A	.	.
16d	8ddd'	.
16f#JJ)	.	.
=58	=58	=58
*Xped	*	*
4AA	(16ccc#LL	.
.	16aa	.
.	16ee	.
.	16cc#JJ	.
4r	16aLL	.
.	16cc#	.
.	16ee	.
.	16ggJJ	.
*ped	*	*
(16DDLL	4ff#)	.
16FF#	.	.
16AA	.	.
16DJJ	.	.
16F#LL	8r	.
16A	.	.
16d	8ddd'	.
16f#JJ)	.	.
=59	=59	=59
*Xped	*	*
4AA	(16ccc#LL	.
.	16aa	.
.	16gg	.
.	16eeJJ	.
4r	16cc#LL	.
.	16a	.
.	16gg	.
.	16eeJJ	.
4D	16ff#LL	.
.	16aa	.
.	16cc#	.
.	16eeJJ	.
4F#	16ddLL	.
.	16ff#	.
.	16a	.
.	16cc#JJ	.
!!LO:LB:g=z
=60	=60	=60
4G	16bLL)	.
.	(16bb	.
.	16aa	.
.	16ggJJ	.
(4GG	16ff#LL	.
.	16ee	.
.	16dd	.
.	16eeJJ	.
4A	16f#LL	.
.	16a	.
.	16dd	.
.	16dJJ	.
4G	16eLL	.
.	(16ee)	.
.	16cc#	.
.	16gJJ)	.
=61	=61	=61
4F#)	16r	.
.	(16ggLL	f
.	16ff#	.
.	16eeJJ	.
4r	16ddLL	.
.	16cc#	.
.	16b	.
.	16aJJ	.
4G	16a#LL	.
.	16b	.
.	16f#	.
.	16gJJ	.
!	!LO:TX:b:i:t=m.s.	!
8r>ff	16d#LL<	.
.	16eJJ	.
8r	16A#LL	.
.	16BJJ	.
=62	=62	=62
4r	16GLL	.
.	16An	.
.	16B	.
.	16c#JJ	.
(4G	16dLL	.
.	16g	.
.	16f#	.
.	16eJJ	.
4A	16dLL	.
.	32eL	.
.	32d	.
.	32c#	.
.	32dJ	.
.	16eJJ)	.
4G	(8.eLMM	.
.	16dJk)	.
!!LO:LB:g=z
=63	=63	=63
*Xped	*	*
4F#)	16r	.
.	(16ggLL	p
.	16ff#	.
.	16eeJJ	.
4r	16ddLL	.
.	16cc#	.
.	16b	.
.	16aJJ	.
4G	16a#LL	.
.	16b	.
.	16f#	.
.	16gJJ	.
8r>ff	16d#LL<	.
.	16eJJ	.
8r	16A#LL	.
.	16BJJ	.
=64	=64	=64
4r	16GLL	.
.	16An	.
.	16B	.
.	16c#JJ	.
(4G	16dLL	.
.	16g	.
.	16f#	.
.	16eJJ	.
4A	16dLL	.
.	32eL	.
.	32d	.
.	32c#	.
.	32dJ	.
.	16eJJ)	.
4G)	(8.eTL	<
.	32dLL	.
.	32eJJJ	[[
=65	=65	=65
4.DD^> 4.D^>	16f#LL)	mf
.	(>16d	.
.	16A	.
.	16dJJ	.
.	16f#LL	.
.	16A	.
8AA'	16G	.
.	16eJJ)	.
4.DD^> 4.D^>	(>16f#LL	.
.	16d	<
.	16f#	.
.	16aJJ	.
.	16ddLL	.
.	16f#	.
8AA'	16e	.
.	16cc#JJ)	.
!!LO:LB:g=z
=66	=66	=66
4.FF#^> 4.D^>	(16ff#LL	.
.	16dd	.
.	16a	.
.	16f#JJ	.
.	16aLL	.
.	16ff#	.
8AA'	16ee	.
.	16gJJ)	.
4.DD^> 4.D^>	(16aaLL	.
.	16ff#	.
.	16dd	.
.	16aJJ	.
.	16ddLL	.
.	16aa	.
8AA'	16gg	.
.	16eeJJ)	.
=67	=67	=67
4.DD^> 4.D^>	(16dddLL	f
.	16aa	.
.	16ff#	<
.	16ddJJ	.
.	16ff#LL	.
.	16ddd	.
8AA'	16ee	.
.	16ccc#JJ	.
8DD' 8D'L	16ff#LL	.
.	16ddd	.
8AA'J	16ee	.
.	16ccc#JJ	.
8DD' 8D'L	16ff#LL	.
.	16ddd	.
8AA'J	16ee	.
.	16ccc#JJ	.
=68	=68	=68
4DD^ 4D^	4dd 4ddd)	ff
4r	4r	.
2r	2r	.
==:|!	==:|!	==:|!
*-	*-	*-
!!!RDF**kern: > = above
!!!RDF**kern: < = below
!!!RDF**kern: N = linked
!!!PTL: Domenico Scarlatti: Opere complete per clavicembalo, vol. 1
!!!PED: Longo, Alessandro
!!!PPR: Ricordi
!!!PPP: Milan
!!!PDT: 1906-1913
!!!ENC: Kelly Leistikow
!!!END: 2005/08/07/
!!!EED: Craig Stuart Sapp
!!!EEV: 2020/12/18
